X:1
T:Because He was Only a Tramp
M:3/4
L:1/4
K:E
 B,/2B,/2| G2 E/2E/2| A3/2 A/2 c| B/2 B3/2 B| G2 B,| E3/2 G/2 B| B3/2 A/2 G|\
 F3| z2 B,/2B,/2| G2 E| A3/2 A/2 c| B2 B| G2 B| B F G| A/2 D3/2 D|\
 E3| z2||
